X:62
T:Angloise ur Nils Jacobs notbok
T:(SmM X-62)
R:Anglais
S:Nils Jacob
B:Småländsk Musiktradition
O:Pjätteryd, Småland
M:2/4
L:1/16
K:C
G2|:c2Gc e2ce|g2ag fedc|B2GB d2Bd|1 gfdB c6 G2:|2gfdB c6 EF||
G2c2 e4|dcBA G2G2|F2F2 d2c2|BGAB c4 z2||

